!!!OTL: Changle zaofan Li Zhengchun
!!!ARE: Asia, China,ÿGuangdong Wuhua
!! II, 371, 1)
!!!SCT: C1894
!!!YEM: Copyright 1995, estate of Helmut Schaffrath.
**kern
*ICvox
*Ivox
*M2/4
*k[]
*C:
{8dd
8dd
8dd
16dd
16ee
=1
8a
8a
8dd
8b
=2
8dd
8dd
[4dd
=3
4.dd]}
{24ee
24dd
24ee
=4
8a
16cc
16dd
8dd
16cc
16dd
=5
16cc
16dd
4.a}
=6
{8dd
8dd
8dd
16dd
16ee
=7
8a
8a
8dd
8b
=8
8dd
8dd
[4dd
=9
4.dd]}
{24ee
24dd
24ee
=10
8a
16cc
16dd
8dd
16cc
16dd
=11
16cc
16dd
4.a}
==
!!!AGN: Shange
!!!AMT: simple duple
!!!AIN: vox
!!!EED: Helmut Schaffrath
!!!EEV: 1.0
*-
!!!ONB: Tied note syntax fixed by Craig Sapp, 2004/05/03/
